icons/mobile/24/svg/passkey-24.svg

<svg width="24" height="24" viewBox="0 0 24 24" fill="none" xmlns="http://www.w3.org/2000/svg">
<path fill-rule="evenodd" clip-rule="evenodd" d="M18.5 11.001C18.8019 11.001 19.1118 11.0392 19.4268 11.1201C20.6168 11.4251 21.5729 12.3803 21.8799 13.5703C22.3997 15.5882 21.1629 17.4208 19.375 17.8828V19.5H20.25C20.664 19.5 21 19.837 21 20.251V21.251C21 21.665 20.664 22.001 20.25 22.001H19.375V22.126C19.375 22.609 18.983 23.001 18.5 23.001C18.017 23.001 17.625 22.609 17.625 22.126V17.877C16.118 17.487 15 16.13 15 14.501C15 12.568 16.567 11.001 18.5 11.001ZM18.5 12.75C17.535 12.75 16.75 13.535 16.75 14.5C16.75 15.465 17.536 16.25 18.501 16.25C19.0458 16.25 19.5507 16.0021 19.8857 15.5703C20.0827 15.3163 20.3835 14.7739 20.1855 14.0059C20.0385 13.44 19.5609 12.9615 18.9951 12.8154C18.8281 12.7724 18.662 12.75 18.5 12.75Z" fill="black"/>
<path d="M10.001 11C11.54 11 12.9834 11.0781 14.3164 11.2061C14.4502 11.2191 14.5772 11.2543 14.707 11.2812C13.9651 12.1532 13.5 13.2681 13.5 14.5C13.5 16.2498 14.4228 17.8208 15.8525 18.7158C15.7477 18.7448 15.643 18.7721 15.5322 18.7861C13.4912 19.0371 11.63 19.125 10.001 19.125C7.99302 19.125 6.14804 18.9911 4.49707 18.7891C3.36007 18.6491 2.50098 17.6968 2.50098 16.5518V14.6943C2.50098 12.8993 3.86339 11.381 5.65039 11.209C7.23223 11.057 8.69209 11 10.001 11Z" fill="black"/>
<path d="M10 2C11.933 2 13.5 3.567 13.5 5.5C13.5 7.433 11.933 9 10 9C8.067 9 6.5 7.433 6.5 5.5C6.5 3.567 8.067 2 10 2Z" fill="black"/>
</svg>

<!-- This Source Code Form is subject to the terms of the Mozilla Public
   - License, v. 2.0. If a copy of the MPL was not distributed with this
   - file, You can obtain one at http://mozilla.org/MPL/2.0/. -->
<svg xmlns="http://www.w3.org/2000/svg" width="24" height="24" fill="none" viewBox="0 0 24 24">
    <path fill="#000" fill-rule="evenodd" d="M18.5 11.001q.454-.001.927.12a3.44 3.44 0 0 1 2.453 2.45 3.505 3.505 0 0 1-2.505 4.312V19.5h.875c.414 0 .75.337.75.751v1a.75.75 0 0 1-.75.75h-.875v.125a.875.875 0 0 1-1.75 0v-4.249A3.49 3.49 0 0 1 15 14.501a3.5 3.5 0 0 1 3.5-3.5m0 1.749c-.965 0-1.75.785-1.75 1.75a1.753 1.753 0 0 0 3.136 1.07 1.77 1.77 0 0 0 .3-1.564 1.7 1.7 0 0 0-1.19-1.19 2 2 0 0 0-.496-.066" clip-rule="evenodd" />
    <path fill="#000" d="M10.001 11c1.539 0 2.982.078 4.315.206.134.013.261.048.391.075-.742.872-1.207 1.987-1.207 3.219 0 1.75.923 3.32 2.352 4.216a2 2 0 0 1-.32.07 45.3 45.3 0 0 1-11.035.003 2.26 2.26 0 0 1-1.996-2.237v-1.858c0-1.795 1.362-3.313 3.15-3.485A46 46 0 0 1 10 11m0-9a3.5 3.5 0 1 1 0 7 3.5 3.5 0 0 1 0-7" />
</svg>
